svg/furkot/freepik/guide.svg

<svg viewBox="0 0 512 512" xmlns="http://www.w3.org/2000/svg"><path d="m483.46 327.192 21.409-168.814-153.586-58.279-48.634 23.223c-1.501 7.427-3.776 14.656-6.753 21.61l36.816-17.579-15.2 163.611.85 8.765-112.176 16.921-9.207 18.158 123.003-18.545 14.181 145.112 16.506-1.625-14.268-145.951 1.438-.225 128.606 16.294.312-2.514 19.434 163.208-133.934-30.914-174.284 33.203-1.451-.275 15.666-148.866-.103-.906-.641-5.577-21.475-42.393 3.03 26.818-3.831.576-124.236-19.247.738-6.115-19.036-150.084 86.924 36.7-7.256-14.303c-2.347-3.042-4.473-6.232-6.49-9.476l-93.266-39.388 22.411 176.613-.423 3.513-.312-.049-2.548 16.382.916.124-19.146 160.833 170.552 31.978 173.951-33.127 153.517 35.428zm-145.807-30.363-2.863.419-.626-6.235 15.982-171.993 1.888-.904 134.733 51.122-18.295 144.147zm-177.484 192.683-134.433-25.211 17.258-144.838 126.151 19.547 5.731-.863.641 5.627zm33.437-148.039-2.151-4.24-.174-1.563 5.706-.862zm-74.407-186.468 73.254 144.563 72.456-143.016c14.231-16.594 22.886-38.1 22.886-61.638-.001-52.337-42.583-94.914-94.921-94.914-52.335 0-94.9 42.577-94.9 94.914 0 22.788 8.079 43.706 21.506 60.091zm73.681-118.427c32.161 0 58.337 26.174 58.337 58.336 0 32.159-26.176 58.337-58.337 58.337s-58.335-26.178-58.335-58.337c.001-32.162 26.168-58.336 58.335-58.336z"/></svg>

<svg xmlns="http://www.w3.org/2000/svg" viewBox="0 0 512 512"><path d="M483.46 327.192L504.869 158.378 351.283 100.099 302.649 123.322C301.148 130.749 298.873 137.978 295.896 144.932L332.712 127.353 317.512 290.964 318.362 299.729 206.186 316.65 196.979 334.808 319.982 316.263 334.163 461.375 350.669 459.75 336.401 313.799 337.839 313.574 466.445 329.868 466.757 327.354 486.191 490.562 352.257 459.648 177.973 492.851 176.522 492.576 192.188 343.71 192.085 342.804 191.444 337.227 169.969 294.834 172.999 321.652 169.168 322.228 44.932 302.981 45.67 296.866 26.634 146.782 113.558 183.482 106.302 169.179C103.955 166.137 101.829 162.947 99.812 159.703L6.546 120.315 28.957 296.928 28.534 300.441 28.222 300.392 25.674 316.774 26.59 316.898 7.444 477.731 177.996 509.709 351.947 476.582 505.464 512.01 483.46 327.192ZM337.653 296.829L334.79 297.248 334.164 291.013 350.146 119.02 352.034 118.116 486.767 169.238 468.472 313.385 337.653 296.829ZM160.169 489.512L25.736 464.301 42.994 319.463 169.145 339.01 174.876 338.147 175.517 343.774 160.169 489.512ZM193.606 341.473L191.455 337.233 191.281 335.67 196.987 334.808 193.606 341.473ZM119.199 155.005L192.453 299.568 264.909 156.552C279.14 139.958 287.795 118.452 287.795 94.914 287.794 42.577 245.212 0 192.874 0 140.539 0 97.974 42.577 97.974 94.914 97.974 117.702 106.053 138.62 119.48 155.005H119.199ZM192.88 36.578C225.041 36.578 251.217 62.752 251.217 94.914 251.217 127.073 225.041 153.251 192.88 153.251 160.719 153.251 134.545 127.073 134.545 94.914 134.546 62.752 160.713 36.578 192.88 36.578Z"/></svg>
